X:1
T:Title
%%score ( 1 2 ) { 3 | 4 }
L:1/8
Q:1/4=95
M:4/4
K:A
V:1 treble nm="Grand Piano, Soprano"
V:2 treble 
V:3 bass nm="Choir Pad, If It Be True"
V:4 bass 
V:1
 (3EFG A2 [EA][EA][DG][DG] | [DF]2 [CE]6 | [A,C][A,C] [CE]2 [CF][CE] [B,D]2 | [B,E][B,D] [A,C]6 | %4
w: By~Daniel~Brink~Towner * * * * * * *||||
 [CE][CE] [EA]2 [EA][EA] [DG]2 | [DF][DF][CE][CE] [A,C]2 [CE]2 | %6
w: ||
 [CE][CE] [B,^D]2 [DF][DA][DG][DG] | [^DF]2 E4- EE | z2 A6 | z2 B6 | [EB]>[EB] [Ec]2 [EA]2 [Ed]2 | %11
w: |||||
 [Ec]2 [EB]4- [EB]B | z2 e4 z2 | z2 d6 | [^EB]2 [=EA]2- [EA][EG] [Ec]2 | [DB]2 [CA]6- | %16
w: |||||
 [CA]2 z2 z4 |] %17
w: |
V:2
 x8 | x8 | x8 | x8 | x8 | x8 | x8 | x8 | F>G z2 E>E E2 | G>A z2 E>E E2 | x8 | x8 | %12
 c>d z z/ A/ A>[Ae] [Ac]2 | [=GA]2 F2 F2 F2 | x8 | x8 | x8 |] %17
V:3
 (3E,F,G, A,2 CCB,B, | G,2 A,6 | E,E, A,2 A,A, G,2 | G,E, E,6 | A,A,[K:treble] C2 CC B,2 | %5
 G,[K:bass]G,A,A, E,2 A,2 | A,A, A,2 A,F,B,B, | A,2 G,6 | z4[K:treble] C>C C2 | %9
 z4[K:bass] G,>G, G,2 | G,>G, A,2 A,2 G,2 | A,2 G,6 | z2 z z/[K:treble] C/ C>C E2 | %13
 E2[K:bass] A,2 A,2 A,2 | D2 C2- CB, A,2 | G,2 A,6- | A,2 z2 z4 |] %17
V:4
 z4 A,A,E,E, | E,2 A,,6 | A,,A,, E,2 E,E, E,2 | .E,2 A,,6 | A,,A,, A,,2 A,,A,, E,2 | %5
 E,E,A,,A,, A,,2 A,,2 | A,,A,, B,,2 B,,B,,B,,B,, | B,,2 E,6 | z4 A,,>A,, A,,2 | z4 E,>E, E,2 | %10
 E,>E, A,,2 C,2 B,,2 | A,,2 E,6 | z2 z z/ A,/ A,>A, A,2 | C,2 D,2 D,2 D,2 | D,2 E,2- E,E, E,2 | %15
 E,2 A,,6- | A,,2 z2 z4 |] %17

